!! 00000] TT[00
!! NN
!!!OTL: Tiaodan Haozi
!!!ARE: Asia, Ostasien, China, Jiangsu
!! Ethnic Group: Han
!! Haozi - Artikel, Essen 1991
!!!SCT: C0000
!!!YEM: Copyright 1995, estate of Helmut Schaffrath.
**kern
*ICvox
*Ivox
*M2/4
*k[f#c#g#]
*A:
{8a
16a
16b
8a
8b
=1
8cc#
8ee
8cc#
8b}
=2
{8cc#
8cc#
8b
16cc#
16b
=3
2a}
=4
{8cc#
16cc#
16b
8a
8b
=5
8a
8b
8a
8b}
=6
{8b
8a
8f#
16e
16f#
=7
2a}
=8
{8a
16a
16b
8a
8b
=9
8cc#
8cc#
8b
16cc#
16b
=10
2a}
=11
{8cc#
16cc#
16b
8a
8b
=12
8a
8b
8a
8b}
=13
{8b
8a
8f#
16e
16f#
=14
2a}
==
!!!AGN: Haozi zum Tragen: Wechselgesang!
!!!ONB: ESAC (Essen Associative Code) Database: CHINAx
!!!AMT: simple duple
!!!AIN: vox
!!!EED: Helmut Schaffrath
!!!EEV: 1.0
*-
